X:215
T:In the Hills of Shiloh
Z:Jackie Fritts
Z:Jack Campin, http://www.campin.me.uk/
F:Jack Campin's Nine-Note Tunebook
% last edit 16-06-2014
C:Shel Silverstein
M:4/4
Q:1/4=120
L:1/4
K:DDor
F A c c|B G A2|G A F D|C D3  |
F A c c|B G A2|G A F D|C D3  |
d c A F|A A A2|d c A F|G E C2|
F A c c|B G A2|G A F D|C D3 |]

